src/assets/Imgs/login.svg

<svg width="900" height="450" xmlns="http://www.w3.org/2000/svg" version="1.1">

 <g>
  <title>Layer 1</title>
  <rect id="svg_1" fill="none" height="450" width="900" y="0" x="0"/>
  <path id="svg_2" fill="#005577" d="m0,218l45,0l0,217l45,0l0,-291l45,0l0,168l45,0l0,96l45,0l0,-199l45,0l0,123l45,0l0,-180l45,0l0,75l45,0l0,64l45,0l0,-18l45,0l0,68l45,0l0,-17l45,0l0,-80l45,0l0,88l45,0l0,111l45,0l0,-259l45,0l0,251l45,0l0,-156l45,0l0,113l45,0l0,-105l0,164l0,0l-45,0l0,0l-45,0l0,0l-45,0l0,0l-45,0l0,0l-45,0l0,0l-45,0l0,0l-45,0l0,0l-45,0l0,0l-45,0l0,0l-45,0l0,0l-45,0l0,0l-45,0l0,0l-45,0l0,0l-45,0l0,0l-45,0l0,0l-45,0l0,0l-45,0l0,0l-45,0l0,0l-45,0l0,0l-45,0l0,-233z"/>
  <path id="svg_3" fill="#006487" d="m0,175l45,0l0,178l45,0l0,61l45,0l0,-151l45,0l0,17l45,0l0,-108l45,0l0,109l45,0l0,38l45,0l0,96l45,0l0,-37l45,0l0,-123l45,0l0,-29l45,0l0,93l45,0l0,96l45,0l0,-221l45,0l0,81l45,0l0,-82l45,0l0,47l45,0l0,88l45,0l0,73l45,0l0,-33l0,83l0,0l-45,0l0,0l-45,0l0,0l-45,0l0,0l-45,0l0,0l-45,0l0,0l-45,0l0,0l-45,0l0,0l-45,0l0,0l-45,0l0,0l-45,0l0,0l-45,0l0,0l-45,0l0,0l-45,0l0,0l-45,0l0,0l-45,0l0,0l-45,0l0,0l-45,0l0,0l-45,0l0,0l-45,0l0,0l-45,0l0,-276z"/>
  <path id="svg_4" fill="#007497" d="m0,290l45,0l0,-94l45,0l0,252l45,0l0,-170l45,0l0,69l45,0l0,84l45,0l0,-232l45,0l0,141l45,0l0,-52l45,0l0,-93l45,0l0,141l45,0l0,74l45,0l0,25l45,0l0,-235l45,0l0,10l45,0l0,25l45,0l0,29l45,0l0,0l45,0l0,156l45,0l0,-157l45,0l0,86l0,102l0,0l-45,0l0,0l-45,0l0,0l-45,0l0,0l-45,0l0,0l-45,0l0,0l-45,0l0,0l-45,0l0,0l-45,0l0,0l-45,0l0,0l-45,0l0,0l-45,0l0,0l-45,0l0,0l-45,0l0,0l-45,0l0,0l-45,0l0,0l-45,0l0,0l-45,0l0,0l-45,0l0,0l-45,0l0,0l-45,0l0,-161z"/>
  <path id="svg_5" fill="#0084a6" d="m0,437l45,0l0,-77l45,0l0,-146l45,0l0,199l45,0l0,-43l45,0l0,12l45,0l0,29l45,0l0,-76l45,0l0,-18l45,0l0,14l45,0l0,49l45,0l0,-103l45,0l0,109l45,0l0,-45l45,0l0,-47l45,0l0,74l45,0l0,-84l45,0l0,67l45,0l0,39l45,0l0,-65l45,0l0,-51l0,177l0,0l-45,0l0,0l-45,0l0,0l-45,0l0,0l-45,0l0,0l-45,0l0,0l-45,0l0,0l-45,0l0,0l-45,0l0,0l-45,0l0,0l-45,0l0,0l-45,0l0,0l-45,0l0,0l-45,0l0,0l-45,0l0,0l-45,0l0,0l-45,0l0,0l-45,0l0,0l-45,0l0,0l-45,0l0,0l-45,0l0,-14z"/>
  <path id="svg_6" fill="#0095b5" d="m0,418l45,0l0,-35l45,0l0,-82l45,0l0,-29l45,0l0,44l45,0l0,-58l45,0l0,174l45,0l0,-185l45,0l0,91l45,0l0,96l45,0l0,7l45,0l0,-141l45,0l0,43l45,0l0,84l45,0l0,12l45,0l0,-31l45,0l0,-60l45,0l0,-77l45,0l0,49l45,0l0,-15l45,0l0,-3l0,149l0,0l-45,0l0,0l-45,0l0,0l-45,0l0,0l-45,0l0,0l-45,0l0,0l-45,0l0,0l-45,0l0,0l-45,0l0,0l-45,0l0,0l-45,0l0,0l-45,0l0,0l-45,0l0,0l-45,0l0,0l-45,0l0,0l-45,0l0,0l-45,0l0,0l-45,0l0,0l-45,0l0,0l-45,0l0,0l-45,0l0,-33z"/>
  <path id="svg_7" fill="#00a6c4" d="m0,316l45,0l0,-34l45,0l0,97l45,0l0,40l45,0l0,-57l45,0l0,2l45,0l0,73l45,0l0,-139l45,0l0,135l45,0l0,-49l45,0l0,-116l45,0l0,45l45,0l0,-23l45,0l0,133l45,0l0,-92l45,0l0,1l45,0l0,-40l45,0l0,66l45,0l0,-90l45,0l0,157l45,0l0,-75l0,101l0,0l-45,0l0,0l-45,0l0,0l-45,0l0,0l-45,0l0,0l-45,0l0,0l-45,0l0,0l-45,0l0,0l-45,0l0,0l-45,0l0,0l-45,0l0,0l-45,0l0,0l-45,0l0,0l-45,0l0,0l-45,0l0,0l-45,0l0,0l-45,0l0,0l-45,0l0,0l-45,0l0,0l-45,0l0,0l-45,0l0,-135z"/>
  <path id="svg_8" fill="#00b7d2" d="m0,411l45,0l0,-56l45,0l0,34l45,0l0,35l45,0l0,-122l45,0l0,50l45,0l0,-9l45,0l0,-1l45,0l0,-1l45,0l0,21l45,0l0,4l45,0l0,-28l45,0l0,87l45,0l0,-84l45,0l0,71l45,0l0,-117l45,0l0,17l45,0l0,23l45,0l0,1l45,0l0,28l45,0l0,-37l0,124l0,0l-45,0l0,0l-45,0l0,0l-45,0l0,0l-45,0l0,0l-45,0l0,0l-45,0l0,0l-45,0l0,0l-45,0l0,0l-45,0l0,0l-45,0l0,0l-45,0l0,0l-45,0l0,0l-45,0l0,0l-45,0l0,0l-45,0l0,0l-45,0l0,0l-45,0l0,0l-45,0l0,0l-45,0l0,0l-45,0l0,-40z"/>
  <path id="svg_9" fill="#00c9df" d="m0,354l45,0l0,17l45,0l0,4l45,0l0,-54l45,0l0,11l45,0l0,26l45,0l0,-12l45,0l0,75l45,0l0,-79l45,0l0,72l45,0l0,-68l45,0l0,-4l45,0l0,-24l45,0l0,53l45,0l0,32l45,0l0,-77l45,0l0,103l45,0l0,-50l45,0l0,8l45,0l0,-7l45,0l0,34l0,37l0,0l-45,0l0,0l-45,0l0,0l-45,0l0,0l-45,0l0,0l-45,0l0,0l-45,0l0,0l-45,0l0,0l-45,0l0,0l-45,0l0,0l-45,0l0,0l-45,0l0,0l-45,0l0,0l-45,0l0,0l-45,0l0,0l-45,0l0,0l-45,0l0,0l-45,0l0,0l-45,0l0,0l-45,0l0,0l-45,0l0,-97z"/>
  <path id="svg_10" fill="#03dbeb" d="m0,382l45,0l0,16l45,0l0,15l45,0l0,-21l45,0l0,-20l45,0l0,-21l45,0l0,51l45,0l0,36l45,0l0,-9l45,0l0,14l45,0l0,-89l45,0l0,26l45,0l0,41l45,0l0,-30l45,0l0,33l45,0l0,-43l45,0l0,6l45,0l0,51l45,0l0,-63l45,0l0,0l45,0l0,14l0,62l0,0l-45,0l0,0l-45,0l0,0l-45,0l0,0l-45,0l0,0l-45,0l0,0l-45,0l0,0l-45,0l0,0l-45,0l0,0l-45,0l0,0l-45,0l0,0l-45,0l0,0l-45,0l0,0l-45,0l0,0l-45,0l0,0l-45,0l0,0l-45,0l0,0l-45,0l0,0l-45,0l0,0l-45,0l0,0l-45,0l0,-69z"/>
  <path id="svg_11" fill="#1dedf5" d="m0,376l45,0l0,69l45,0l0,-36l45,0l0,14l45,0l0,-14l45,0l0,16l45,0l0,-51l45,0l0,20l45,0l0,55l45,0l0,-3l45,0l0,-46l45,0l0,45l45,0l0,-1l45,0l0,-34l45,0l0,-24l45,0l0,10l45,0l0,-19l45,0l0,61l45,0l0,-14l45,0l0,-14l45,0l0,28l0,13l0,0l-45,0l0,0l-45,0l0,0l-45,0l0,0l-45,0l0,0l-45,0l0,0l-45,0l0,0l-45,0l0,0l-45,0l0,0l-45,0l0,0l-45,0l0,0l-45,0l0,0l-45,0l0,0l-45,0l0,0l-45,0l0,0l-45,0l0,0l-45,0l0,0l-45,0l0,0l-45,0l0,0l-45,0l0,0l-45,0l0,-75z"/>
  <path id="svg_12" fill="#33ffff" d="m0,430l45,0l0,11l45,0l0,0l45,0l0,6l45,0l0,-3l45,0l0,-3l45,0l0,-39l45,0l0,4l45,0l0,22l45,0l0,-6l45,0l0,27l45,0l0,-30l45,0l0,29l45,0l0,-24l45,0l0,-4l45,0l0,-3l45,0l0,21l45,0l0,-25l45,0l0,30l45,0l0,-10l45,0l0,-21l0,39l0,0l-45,0l0,0l-45,0l0,0l-45,0l0,0l-45,0l0,0l-45,0l0,0l-45,0l0,0l-45,0l0,0l-45,0l0,0l-45,0l0,0l-45,0l0,0l-45,0l0,0l-45,0l0,0l-45,0l0,0l-45,0l0,0l-45,0l0,0l-45,0l0,0l-45,0l0,0l-45,0l0,0l-45,0l0,0l-45,0l0,-21z"/>
 </g>
</svg>

<svg id="visual" viewBox="0 0 900 450" width="900" height="450" xmlns="http://www.w3.org/2000/svg" xmlns:xlink="http://www.w3.org/1999/xlink" version="1.1"><rect x="0" y="0" width="900" height="450" fill="#111"></rect><path d="M0 218L45 218L45 435L90 435L90 144L135 144L135 312L180 312L180 408L225 408L225 209L270 209L270 332L315 332L315 152L360 152L360 227L405 227L405 291L450 291L450 273L495 273L495 341L540 341L540 324L585 324L585 244L630 244L630 332L675 332L675 443L720 443L720 184L765 184L765 435L810 435L810 279L855 279L855 392L900 392L900 287L900 451L900 451L855 451L855 451L810 451L810 451L765 451L765 451L720 451L720 451L675 451L675 451L630 451L630 451L585 451L585 451L540 451L540 451L495 451L495 451L450 451L450 451L405 451L405 451L360 451L360 451L315 451L315 451L270 451L270 451L225 451L225 451L180 451L180 451L135 451L135 451L90 451L90 451L45 451L45 451L0 451Z" fill="#005577"></path><path d="M0 175L45 175L45 353L90 353L90 414L135 414L135 263L180 263L180 280L225 280L225 172L270 172L270 281L315 281L315 319L360 319L360 415L405 415L405 378L450 378L450 255L495 255L495 226L540 226L540 319L585 319L585 415L630 415L630 194L675 194L675 275L720 275L720 193L765 193L765 240L810 240L810 328L855 328L855 401L900 401L900 368L900 451L900 451L855 451L855 451L810 451L810 451L765 451L765 451L720 451L720 451L675 451L675 451L630 451L630 451L585 451L585 451L540 451L540 451L495 451L495 451L450 451L450 451L405 451L405 451L360 451L360 451L315 451L315 451L270 451L270 451L225 451L225 451L180 451L180 451L135 451L135 451L90 451L90 451L45 451L45 451L0 451Z" fill="#006487"></path><path d="M0 290L45 290L45 196L90 196L90 448L135 448L135 278L180 278L180 347L225 347L225 431L270 431L270 199L315 199L315 340L360 340L360 288L405 288L405 195L450 195L450 336L495 336L495 410L540 410L540 435L585 435L585 200L630 200L630 210L675 210L675 235L720 235L720 264L765 264L765 264L810 264L810 420L855 420L855 263L900 263L900 349L900 451L900 451L855 451L855 451L810 451L810 451L765 451L765 451L720 451L720 451L675 451L675 451L630 451L630 451L585 451L585 451L540 451L540 451L495 451L495 451L450 451L450 451L405 451L405 451L360 451L360 451L315 451L315 451L270 451L270 451L225 451L225 451L180 451L180 451L135 451L135 451L90 451L90 451L45 451L45 451L0 451Z" fill="#007497"></path><path d="M0 437L45 437L45 360L90 360L90 214L135 214L135 413L180 413L180 370L225 370L225 382L270 382L270 411L315 411L315 335L360 335L360 317L405 317L405 331L450 331L450 380L495 380L495 277L540 277L540 386L585 386L585 341L630 341L630 294L675 294L675 368L720 368L720 284L765 284L765 351L810 351L810 390L855 390L855 325L900 325L900 274L900 451L900 451L855 451L855 451L810 451L810 451L765 451L765 451L720 451L720 451L675 451L675 451L630 451L630 451L585 451L585 451L540 451L540 451L495 451L495 451L450 451L450 451L405 451L405 451L360 451L360 451L315 451L315 451L270 451L270 451L225 451L225 451L180 451L180 451L135 451L135 451L90 451L90 451L45 451L45 451L0 451Z" fill="#0084a6"></path><path d="M0 418L45 418L45 383L90 383L90 301L135 301L135 272L180 272L180 316L225 316L225 258L270 258L270 432L315 432L315 247L360 247L360 338L405 338L405 434L450 434L450 441L495 441L495 300L540 300L540 343L585 343L585 427L630 427L630 439L675 439L675 408L720 408L720 348L765 348L765 271L810 271L810 320L855 320L855 305L900 305L900 302L900 451L900 451L855 451L855 451L810 451L810 451L765 451L765 451L720 451L720 451L675 451L675 451L630 451L630 451L585 451L585 451L540 451L540 451L495 451L495 451L450 451L450 451L405 451L405 451L360 451L360 451L315 451L315 451L270 451L270 451L225 451L225 451L180 451L180 451L135 451L135 451L90 451L90 451L45 451L45 451L0 451Z" fill="#0095b5"></path><path d="M0 316L45 316L45 282L90 282L90 379L135 379L135 419L180 419L180 362L225 362L225 364L270 364L270 437L315 437L315 298L360 298L360 433L405 433L405 384L450 384L450 268L495 268L495 313L540 313L540 290L585 290L585 423L630 423L630 331L675 331L675 332L720 332L720 292L765 292L765 358L810 358L810 268L855 268L855 425L900 425L900 350L900 451L900 451L855 451L855 451L810 451L810 451L765 451L765 451L720 451L720 451L675 451L675 451L630 451L630 451L585 451L585 451L540 451L540 451L495 451L495 451L450 451L450 451L405 451L405 451L360 451L360 451L315 451L315 451L270 451L270 451L225 451L225 451L180 451L180 451L135 451L135 451L90 451L90 451L45 451L45 451L0 451Z" fill="#00a6c4"></path><path d="M0 411L45 411L45 355L90 355L90 389L135 389L135 424L180 424L180 302L225 302L225 352L270 352L270 343L315 343L315 342L360 342L360 341L405 341L405 362L450 362L450 366L495 366L495 338L540 338L540 425L585 425L585 341L630 341L630 412L675 412L675 295L720 295L720 312L765 312L765 335L810 335L810 336L855 336L855 364L900 364L900 327L900 451L900 451L855 451L855 451L810 451L810 451L765 451L765 451L720 451L720 451L675 451L675 451L630 451L630 451L585 451L585 451L540 451L540 451L495 451L495 451L450 451L450 451L405 451L405 451L360 451L360 451L315 451L315 451L270 451L270 451L225 451L225 451L180 451L180 451L135 451L135 451L90 451L90 451L45 451L45 451L0 451Z" fill="#00b7d2"></path><path d="M0 354L45 354L45 371L90 371L90 375L135 375L135 321L180 321L180 332L225 332L225 358L270 358L270 346L315 346L315 421L360 421L360 342L405 342L405 414L450 414L450 346L495 346L495 342L540 342L540 318L585 318L585 371L630 371L630 403L675 403L675 326L720 326L720 429L765 429L765 379L810 379L810 387L855 387L855 380L900 380L900 414L900 451L900 451L855 451L855 451L810 451L810 451L765 451L765 451L720 451L720 451L675 451L675 451L630 451L630 451L585 451L585 451L540 451L540 451L495 451L495 451L450 451L450 451L405 451L405 451L360 451L360 451L315 451L315 451L270 451L270 451L225 451L225 451L180 451L180 451L135 451L135 451L90 451L90 451L45 451L45 451L0 451Z" fill="#00c9df"></path><path d="M0 382L45 382L45 398L90 398L90 413L135 413L135 392L180 392L180 372L225 372L225 351L270 351L270 402L315 402L315 438L360 438L360 429L405 429L405 443L450 443L450 354L495 354L495 380L540 380L540 421L585 421L585 391L630 391L630 424L675 424L675 381L720 381L720 387L765 387L765 438L810 438L810 375L855 375L855 375L900 375L900 389L900 451L900 451L855 451L855 451L810 451L810 451L765 451L765 451L720 451L720 451L675 451L675 451L630 451L630 451L585 451L585 451L540 451L540 451L495 451L495 451L450 451L450 451L405 451L405 451L360 451L360 451L315 451L315 451L270 451L270 451L225 451L225 451L180 451L180 451L135 451L135 451L90 451L90 451L45 451L45 451L0 451Z" fill="#03dbeb"></path><path d="M0 376L45 376L45 445L90 445L90 409L135 409L135 423L180 423L180 409L225 409L225 425L270 425L270 374L315 374L315 394L360 394L360 449L405 449L405 446L450 446L450 400L495 400L495 445L540 445L540 444L585 444L585 410L630 410L630 386L675 386L675 396L720 396L720 377L765 377L765 438L810 438L810 424L855 424L855 410L900 410L900 438L900 451L900 451L855 451L855 451L810 451L810 451L765 451L765 451L720 451L720 451L675 451L675 451L630 451L630 451L585 451L585 451L540 451L540 451L495 451L495 451L450 451L450 451L405 451L405 451L360 451L360 451L315 451L315 451L270 451L270 451L225 451L225 451L180 451L180 451L135 451L135 451L90 451L90 451L45 451L45 451L0 451Z" fill="#1dedf5"></path><path d="M0 430L45 430L45 441L90 441L90 441L135 441L135 447L180 447L180 444L225 444L225 441L270 441L270 402L315 402L315 406L360 406L360 428L405 428L405 422L450 422L450 449L495 449L495 419L540 419L540 448L585 448L585 424L630 424L630 420L675 420L675 417L720 417L720 438L765 438L765 413L810 413L810 443L855 443L855 433L900 433L900 412L900 451L900 451L855 451L855 451L810 451L810 451L765 451L765 451L720 451L720 451L675 451L675 451L630 451L630 451L585 451L585 451L540 451L540 451L495 451L495 451L450 451L450 451L405 451L405 451L360 451L360 451L315 451L315 451L270 451L270 451L225 451L225 451L180 451L180 451L135 451L135 451L90 451L90 451L45 451L45 451L0 451Z" fill="#33ffff"></path></svg>
